X: 3
T: Paddy Cronin's
M: 6/8
L: 1/8
R: jig
K: Ador
|: E |\
ABG A2 g | edg gdB | GGG BAG | dBG AGE |
ABG A2 g | edB def | g2 e fdB | BAG A2 :|
|: e |\
aa/a/a bge | aaa bge | ggg gdB | GAB deg |
a2 b age | edB ded | g2 e fdB | BAG A2 :|
